X: 5158
T: Bright Skies
R: hornpipe
M: 4/4
K: Gmajor
dGBG dGBG|DGBd gdBG|ecc2dBB2|ceag faef|
gGBG dGBG|DGBD gdBG|ecc2dBB2|cdfag2z2:|
|:dgfg egfg|afdf gdBd|ecc2dBB2|ceag faef|
gdBG DGBd|ecag fadg|ecc2dBB2|cdfag2z2:|

